tools/download-figma-icons/icons/outlined-medium/sailboat.svg

<svg width="24" height="24" viewBox="0 0 24 24" fill="none" xmlns="http://www.w3.org/2000/svg">
<path fill-rule="evenodd" clip-rule="evenodd" d="M15.7463 20.2543C14.4578 20.2543 13.7865 21.0598 13.2953 21.647C12.8273 22.2088 12.5573 22.502 11.997 22.502C11.4368 22.502 11.1668 22.2088 10.6988 21.647C10.2076 21.0598 9.5363 20.2543 8.24706 20.2543C6.95782 20.2543 6.28657 21.0598 5.79532 21.6478C5.74807 21.7055 5.70832 21.7475 5.66482 21.7993L4.19333 18.7565H19.8608L18.483 21.9748C18.393 21.8773 18.3015 21.7715 18.1988 21.647C17.7075 21.0598 17.0355 20.2543 15.7463 20.2543ZM5.65206 13.5133L9.74779 4.30861V13.5133H5.65206ZM18.7223 13.5133H12.726C13.8668 12.1431 15.288 9.00061 12.537 3.01864C14.9588 4.97163 18.3945 8.66386 18.7223 13.5133ZM11.2478 12.9006V3.80311C13.9418 9.76108 11.9963 12.2301 11.2478 12.9006ZM23.25 20.2543C21.9608 20.2543 21.2895 21.059 20.7983 21.647C20.466 22.046 20.2305 22.301 19.923 22.421L21.687 18.302C21.7868 18.0703 21.762 17.804 21.624 17.5948C21.4845 17.3848 21.2498 17.258 20.9978 17.258H11.2478V15.0111H19.4978C19.9125 15.0111 20.2478 14.6766 20.2478 14.2618C20.2478 6.20234 12.6331 1.01987 10.9726 0.176126C10.7363 -0.0196234 10.3973 -0.0631232 10.1176 0.101126C9.96907 0.188876 9.87307 0.324625 9.81307 0.473124C9.81307 0.473124 9.81232 0.473874 9.81232 0.474624L9.80857 0.483624C9.79732 0.511374 9.77932 0.536124 9.77182 0.565374L3.81235 13.9573C3.70885 14.1898 3.7306 14.4576 3.8686 14.6706C4.00735 14.8828 4.2436 15.0111 4.49785 15.0111H9.74782V17.258H2.99786C2.73986 17.258 2.49986 17.3908 2.36261 17.6098C2.22536 17.8273 2.21036 18.101 2.32286 18.3328L4.32685 22.4765C3.8851 22.418 3.61435 22.145 3.19961 21.647C2.70911 21.0598 2.03861 20.2543 0.750118 20.2543C0.33537 20.2543 0.00012207 20.5895 0.00012207 21.0035C0.00012207 21.4175 0.33537 21.7528 0.750118 21.7528C1.30962 21.7528 1.57886 22.0453 2.04686 22.6063C2.53811 23.1943 3.20936 23.9998 4.49785 23.9998C5.78634 23.9998 6.45759 23.1943 6.94884 22.607C7.41683 22.0453 7.68683 21.7528 8.24708 21.7528C8.80733 21.7528 9.07733 22.0453 9.54532 22.607C10.0366 23.1943 10.7078 23.9998 11.9971 23.9998C13.2863 23.9998 13.9576 23.1943 14.4488 22.6063C14.9168 22.0453 15.1868 21.7528 15.7463 21.7528C16.3065 21.7528 16.5773 22.0453 17.0453 22.607C17.5365 23.1943 18.2085 23.9998 19.4978 23.9998C20.7878 23.9998 21.459 23.1943 21.9503 22.607C22.4183 22.0453 22.6898 21.7528 23.25 21.7528C23.6648 21.7528 24 21.4175 24 21.0035C24 20.5895 23.6648 20.2543 23.25 20.2543Z" fill="black"/>
</svg>

<svg xmlns="http://www.w3.org/2000/svg" width="24" height="24" fill="none" viewBox="0 0 24 24"><path fill="currentColor" fill-rule="evenodd" d="M15.746 20.254c-1.288 0-1.96.806-2.45 1.393-.469.562-.739.855-1.299.855s-.83-.293-1.298-.855c-.491-.587-1.163-1.393-2.452-1.393-1.29 0-1.96.806-2.452 1.394-.047.058-.087.1-.13.151l-1.472-3.043h15.668l-1.378 3.219a8 8 0 0 1-.284-.328c-.492-.587-1.164-1.393-2.453-1.393m-10.094-6.74 4.096-9.205v9.204zm13.07 0h-5.996c1.14-1.37 2.562-4.513-.189-10.495 2.422 1.953 5.858 5.645 6.185 10.494m-7.474-.613V3.803c2.694 5.958.748 8.427 0 9.098m12.002 7.353c-1.29 0-1.96.805-2.452 1.393-.332.399-.567.654-.875.774l1.764-4.119a.748.748 0 0 0-.69-1.044h-9.75v-2.247h8.25c.416 0 .75-.334.75-.75 0-8.059-7.614-13.241-9.274-14.085a.745.745 0 0 0-.855-.075.74.74 0 0 0-.305.372v.002l-.004.009c-.012.027-.03.052-.037.081l-5.96 13.392a.75.75 0 0 0 .686 1.054h5.25v2.247h-6.75a.75.75 0 0 0-.675 1.075l2.004 4.144c-.442-.059-.713-.332-1.127-.83-.49-.587-1.161-1.393-2.45-1.393a.75.75 0 1 0 0 1.499c.56 0 .829.292 1.297.853.491.588 1.162 1.394 2.45 1.394 1.29 0 1.96-.806 2.452-1.393.468-.562.738-.854 1.298-.854s.83.292 1.298.854c.492.587 1.163 1.393 2.452 1.393 1.29 0 1.96-.806 2.452-1.394.468-.56.738-.853 1.297-.853.56 0 .831.292 1.3.854.49.587 1.163 1.393 2.452 1.393 1.29 0 1.961-.806 2.452-1.393.468-.562.74-.854 1.3-.854a.75.75 0 1 0 0-1.499" clip-rule="evenodd"/></svg>
